images_breeze_svg/cmd/32/saveasremote.svg

<svg viewBox="0 0 32 32" xmlns="http://www.w3.org/2000/svg"><g fill="#4d4d4d"><path d="m4 4v19h1v-18h5v8h11v-8h.585938l5.414062 5.414062v12.585938h1v-13l-1-1-4-4-1-1h-1-11zm7 1h6v7h-6zm-2 14v4h1v-3h12v3h1v-4z"/><path d="m12 23v2h-8v1h8v2h8v-2h8v-1h-8v-2zm4 1c.828427 0 1.5.671573 1.5 1.5s-.671573 1.5-1.5 1.5-1.5-.671573-1.5-1.5.671573-1.5 1.5-1.5z"/></g></svg>

<?xml version="1.0" encoding="UTF-8" standalone="no"?>
<svg
   xmlns:dc="http://purl.org/dc/elements/1.1/"
   xmlns:cc="http://creativecommons.org/ns#"
   xmlns:rdf="http://www.w3.org/1999/02/22-rdf-syntax-ns#"
   xmlns:svg="http://www.w3.org/2000/svg"
   xmlns="http://www.w3.org/2000/svg"
   xmlns:sodipodi="http://sodipodi.sourceforge.net/DTD/sodipodi-0.dtd"
   xmlns:inkscape="http://www.inkscape.org/namespaces/inkscape"
   viewBox="0 0 32 32"
   version="1.1"
   id="svg5"
   sodipodi:docname="saveasremote.svg"
   inkscape:version="0.92.4 (unknown)"
   inkscape:export-filename="/home/rizmut/Dokumen/Rizmut/Github/tmp/breeze/cmd/32/saveasremote.png"
   inkscape:export-xdpi="96"
   inkscape:export-ydpi="96">
  <metadata
     id="metadata9">
    <rdf:RDF>
      <cc:Work
         rdf:about="">
        <dc:format>image/svg+xml</dc:format>
        <dc:type
           rdf:resource="http://purl.org/dc/dcmitype/StillImage" />
        <dc:title></dc:title>
      </cc:Work>
    </rdf:RDF>
  </metadata>
  <sodipodi:namedview
     pagecolor="#ffffff"
     bordercolor="#666666"
     borderopacity="1"
     objecttolerance="10"
     gridtolerance="10"
     guidetolerance="10"
     inkscape:pageopacity="0"
     inkscape:pageshadow="2"
     inkscape:window-width="1360"
     inkscape:window-height="714"
     id="namedview7"
     showgrid="true"
     inkscape:zoom="5.2149125"
     inkscape:cx="7.1327175"
     inkscape:cy="9.3703623"
     inkscape:window-x="0"
     inkscape:window-y="28"
     inkscape:window-maximized="1"
     inkscape:current-layer="svg5">
    <inkscape:grid
       type="xygrid"
       id="grid819" />
  </sodipodi:namedview>
  <defs
     id="defs3051">
    <style
       type="text/css"
       id="current-color-scheme">
      .ColorScheme-Text {
        color:#4d4d4d;
      }
      </style>
  </defs>
  <path
     style="fill:#4d4d4d;fill-opacity:1;stroke:none"
     d="M 4 4 L 4 23 L 5 23 L 5 5 L 10 5 L 10 13 L 21 13 L 21 5 L 21.585938 5 L 27 10.414062 L 27 23 L 28 23 L 28 10 L 27 9 L 23 5 L 22 4 L 21 4 L 10 4 L 4 4 z M 11 5 L 17 5 L 17 12 L 11 12 L 11 5 z M 9 19 L 9 23 L 10 23 L 10 20 L 22 20 L 22 23 L 23 23 L 23 19 L 9 19 z "
     id="path60" />
  <path
     inkscape:connector-curvature="0"
     style="color:#4d4d4d;fill:currentColor;fill-opacity:1;stroke:none"
     d="m 12,23 v 2 H 4 v 1 h 8 v 2 h 8 v -2 h 8 v -1 h -8 v -2 z m 4,1 c 0.828427,0 1.5,0.671573 1.5,1.5 0,0.828427 -0.671573,1.5 -1.5,1.5 -0.828427,0 -1.5,-0.671573 -1.5,-1.5 0,-0.828427 0.671573,-1.5 1.5,-1.5 z"
     id="path74"
     class="ColorScheme-Text"
     sodipodi:nodetypes="cccccccccccccsssss" />
</svg>
